X: 27
T:Mississipi Sawyer
% Nottingham Music Database
S:Trad, via EF
M:4/4
L:1/4
K:D
P:A
f/2g/2|"D"aa/2f/2 aa/2f/2|"D"aa/2f/2 a/2b/2a/2f/2|"A7"gg/2e/2 gg/2e/2|\
"A7"gg/2e/2 a/2g/2f/2e/2|
"D"ff/2a/2 ff/2e/2|"D"d/2e/2f/2g/2 af/2g/2|"A7"aa/2f/2 e/2g/2f/2e/2|"D"d2 d:|
P:B
(3A/2B/2c/2|"D"df/2e/2 df/2e/2|"D"d/2e/2f/2g/2 a2|"A7"Ac/2B/2 Ac/2B/2|\
"A7"A/2B/2c/2d/2 e/2g/2f/2e/2|
"D"df/2e/2 df/2e/2|"D"d/2e/2f/2g/2 af/2g/2|"A7"a/2b/2a/2g/2 f/2e/2d/2f/2|\
"A7"e/2d/2e/2f/2 "D"d:|<end>
<start>
